SVG_Azure_Grouped/Management/Update Management.svg

<?xml version="1.0" encoding="UTF-8" standalone="no"?>
<!-- Generated by Microsoft Visio, SVG Export Update Management.svg Page-1 -->

<svg
   xmlns:dc="http://purl.org/dc/elements/1.1/"
   xmlns:cc="http://creativecommons.org/ns#"
   xmlns:rdf="http://www.w3.org/1999/02/22-rdf-syntax-ns#"
   xmlns:svg="http://www.w3.org/2000/svg"
   xmlns="http://www.w3.org/2000/svg"
   xmlns:sodipodi="http://sodipodi.sourceforge.net/DTD/sodipodi-0.dtd"
   xmlns:inkscape="http://www.inkscape.org/namespaces/inkscape"
   width="0.78735983in"
   height="0.70860165in"
   viewBox="0 0 56.689976 51.019425"
   xml:space="preserve"
   class="st7"
   version="1.1"
   id="svg49"
   sodipodi:docname="Update Management.svg"
   style="font-size:12px;overflow:visible;color-interpolation-filters:sRGB;fill:none;fill-rule:evenodd;stroke-linecap:square;stroke-miterlimit:3"
   inkscape:version="0.92.5 (2060ec1f9f, 2020-04-08)"><metadata
   id="metadata55"><rdf:RDF><cc:Work
       rdf:about=""><dc:format>image/svg+xml</dc:format><dc:type
         rdf:resource="http://purl.org/dc/dcmitype/StillImage" /></cc:Work></rdf:RDF></metadata><defs
   id="defs53" /><sodipodi:namedview
   pagecolor="#ffffff"
   bordercolor="#666666"
   borderopacity="1"
   objecttolerance="10"
   gridtolerance="10"
   guidetolerance="10"
   inkscape:pageopacity="0"
   inkscape:pageshadow="2"
   inkscape:window-width="640"
   inkscape:window-height="480"
   id="namedview51"
   showgrid="false"
   inkscape:zoom="1.8195051"
   inkscape:cx="37.795228"
   inkscape:cy="19.499465"
   inkscape:window-x="0"
   inkscape:window-y="0"
   inkscape:window-maximized="0"
   inkscape:current-layer="svg49" />
	<style
   type="text/css"
   id="style2">
	<![CDATA[
		.st1 {fill:#a0a1a2;stroke:none;stroke-linecap:butt;stroke-width:12.24}
		.st2 {fill:#0072c6;stroke:none;stroke-linecap:butt;stroke-width:12.24}
		.st3 {fill:#ffffff;fill-opacity:0.2;stroke:none;stroke-linecap:butt;stroke-width:12.24}
		.st4 {fill:#fafdff;fill-opacity:0.2;stroke:none;stroke-linecap:butt;stroke-width:12.24}
		.st5 {fill:#ffffff;stroke:none;stroke-linecap:butt;stroke-width:12.24}
		.st6 {fill:#1e1e1e;fill-opacity:0.15;stroke:none;stroke-linecap:butt;stroke-width:12.24}
		.st7 {fill:none;fill-rule:evenodd;font-size:12px;overflow:visible;stroke-linecap:square;stroke-miterlimit:3}
	]]>
	</style>

	<g
   id="g47"
   transform="translate(-12.24,-12.2449)">
		<title
   id="title4">Page-1</title>
		<g
   id="group11975-1"
   transform="translate(12.24,-34.0157)">
			<title
   id="title6">Update Management.11975</title>
			<g
   id="group11976-2">
				<title
   id="title8">g18</title>
				<g
   id="shape11977-3"
   transform="translate(9.44882)">
					<title
   id="title10">path4</title>
					<path
   d="M 25.98,85.41 H 11.81 C 13.67,92.3 11.13,93.72 0,93.72 v 3.56 h 37.8 v -3.56 c -11.13,0 -13.67,-1.42 -11.82,-8.31 z"
   class="st1"
   id="path12"
   inkscape:connector-curvature="0"
   style="fill:#a0a1a2;stroke:none;stroke-width:12.23999977;stroke-linecap:butt" />
				</g>
				<g
   id="shape11978-5"
   transform="translate(0,-10.6794)">
					<title
   id="title15">path6</title>
					<path
   d="M 53.15,56.94 H 3.19 C 1.42,56.94 0,58.6 0,60.38 v 33.58 c 0,1.78 1.42,3.32 3.19,3.32 h 49.96 c 1.77,0 3.54,-1.54 3.54,-3.32 V 60.38 c 0,-1.78 -1.77,-3.44 -3.54,-3.44 z"
   class="st1"
   id="path17"
   inkscape:connector-curvature="0"
   style="fill:#a0a1a2;stroke:none;stroke-width:12.23999977;stroke-linecap:butt" />
				</g>
				<g
   id="shape11979-7"
   transform="translate(4.72441,-15.4257)">
					<title
   id="title20">path8</title>
					<rect
   x="0"
   y="66.427902"
   width="47.244099"
   height="30.8515"
   class="st2"
   id="rect22"
   style="fill:#0072c6;stroke:none;stroke-width:12.23999977;stroke-linecap:butt" />
				</g>
				<g
   id="shape11980-9"
   transform="translate(0,-10.6794)">
					<title
   id="title25">path10</title>
					<path
   d="M 43.7,56.94 H 53.15 3.19 C 1.42,56.94 0,58.6 0,60.38 v 33.58 c 0,1.78 1.42,3.32 3.19,3.32 h 5.08 z"
   class="st3"
   id="path27"
   inkscape:connector-curvature="0"
   style="fill:#ffffff;fill-opacity:0.2;stroke:none;stroke-width:12.23999977;stroke-linecap:butt" />
				</g>
				<g
   id="shape11981-11"
   transform="translate(9.44882)">
					<title
   id="title30">path12</title>
					<rect
   x="0"
   y="93.719597"
   width="37.7953"
   height="3.5597899"
   class="st4"
   id="rect32"
   style="fill:#fafdff;fill-opacity:0.2;stroke:none;stroke-width:12.23999977;stroke-linecap:butt" />
				</g>
				<g
   id="shape11982-13"
   transform="translate(17.7165,-19.3747)">
					<title
   id="title35">path14</title>
					<path
   d="m 10.34,97.28 c 5.06,0 9.49,-4.02 9.92,-9.11 H 17.3 c -0.42,3.39 -3.37,6.15 -6.96,6.15 -2.11,0 -4.22,-1.06 -5.28,-2.76 L 8.23,88.18 H 0 v 8.89 l 2.95,-3.39 c 1.9,2.12 4.44,3.6 7.39,3.6 z m 0.59,-18.81 c 2.11,0 4.22,1.05 5.28,2.75 l -3.17,3.39 h 8.23 v -8.9 l -2.95,3.18 c -1.69,-2.12 -4.43,-3.39 -7.39,-3.39 -5.27,0 -9.49,4.03 -9.91,9.11 h 2.95 c 0.42,-3.6 3.38,-6.14 6.96,-6.14 z"
   class="st5"
   id="path37"
   inkscape:connector-curvature="0"
   style="fill:#ffffff;stroke:none;stroke-width:12.23999977;stroke-linecap:butt" />
				</g>
				<g
   id="shape11983-15"
   transform="translate(22.4409,-9.49277)">
					<title
   id="title40">path16</title>
					<rect
   x="0"
   y="96.092796"
   width="11.811"
   height="1.1866"
   class="st6"
   id="rect42"
   style="fill:#1e1e1e;fill-opacity:0.15;stroke:none;stroke-width:12.23999977;stroke-linecap:butt" />
				</g>
			</g>
		</g>
	</g>
</svg>

<?xml version="1.0" encoding="UTF-8" standalone="no"?>
<!DOCTYPE svg PUBLIC "-//W3C//DTD SVG 1.1//EN" "http://www.w3.org/Graphics/SVG/1.1/DTD/svg11.dtd">
<!-- Generated by Microsoft Visio, SVG Export Update Management.svg Page-1 -->
<svg xmlns="http://www.w3.org/2000/svg" xmlns:xlink="http://www.w3.org/1999/xlink" xmlns:ev="http://www.w3.org/2001/xml-events"
		width="1.1274in" height="1.3511in" viewBox="0 0 81.1729 97.2794" xml:space="preserve" color-interpolation-filters="sRGB"
		class="st7">
	<style type="text/css">
	<![CDATA[
		.st1 {fill:#a0a1a2;stroke:none;stroke-linecap:butt;stroke-width:12.24}
		.st2 {fill:#0072c6;stroke:none;stroke-linecap:butt;stroke-width:12.24}
		.st3 {fill:#ffffff;fill-opacity:0.2;stroke:none;stroke-linecap:butt;stroke-width:12.24}
		.st4 {fill:#fafdff;fill-opacity:0.2;stroke:none;stroke-linecap:butt;stroke-width:12.24}
		.st5 {fill:#ffffff;stroke:none;stroke-linecap:butt;stroke-width:12.24}
		.st6 {fill:#1e1e1e;fill-opacity:0.15;stroke:none;stroke-linecap:butt;stroke-width:12.24}
		.st7 {fill:none;fill-rule:evenodd;font-size:12px;overflow:visible;stroke-linecap:square;stroke-miterlimit:3}
	]]>
	</style>

	<g>
		<title>Page-1</title>
		<g id="group11696-1" transform="translate(12.24,-34.0157)">
			<title>Update Management.11696</title>
			<g id="group11697-2">
				<title>g18</title>
				<g id="shape11698-3" transform="translate(9.44882,1.42109E-14)">
					<title>path4</title>
					<path d="M25.98 85.41 L11.81 85.41 C13.67 92.3 11.13 93.72 0 93.72 L0 97.28 L37.8 97.28 L37.8 93.72 C26.67 93.72
								 24.13 92.3 25.98 85.41 Z" class="st1"/>
				</g>
				<g id="shape11699-5" transform="translate(0,-10.6794)">
					<title>path6</title>
					<path d="M53.15 56.94 L3.19 56.94 C1.42 56.94 0 58.6 0 60.38 L0 93.96 C0 95.74 1.42 97.28 3.19 97.28 L53.15 97.28
								 C54.92 97.28 56.69 95.74 56.69 93.96 L56.69 60.38 C56.69 58.6 54.92 56.94 53.15 56.94 Z"
							class="st1"/>
				</g>
				<g id="shape11700-7" transform="translate(4.72441,-15.4257)">
					<title>path8</title>
					<rect x="0" y="66.4279" width="47.2441" height="30.8515" class="st2"/>
				</g>
				<g id="shape11701-9" transform="translate(0,-10.6794)">
					<title>path10</title>
					<path d="M43.7 56.94 L53.15 56.94 L3.19 56.94 C1.42 56.94 0 58.6 0 60.38 L0 93.96 C0 95.74 1.42 97.28 3.19 97.28
								 L8.27 97.28 L43.7 56.94 Z" class="st3"/>
				</g>
				<g id="shape11702-11" transform="translate(9.44882,-2.84217E-14)">
					<title>path12</title>
					<rect x="0" y="93.7196" width="37.7953" height="3.55979" class="st4"/>
				</g>
				<g id="shape11703-13" transform="translate(17.7165,-19.3747)">
					<title>path14</title>
					<path d="M10.34 97.28 C15.4 97.28 19.83 93.26 20.26 88.17 L17.3 88.17 C16.88 91.56 13.93 94.32 10.34 94.32 C8.23
								 94.32 6.12 93.26 5.06 91.56 L8.23 88.18 L0 88.18 L0 97.07 L2.95 93.68 C4.85 95.8 7.39 97.28 10.34
								 97.28 ZM10.93 78.47 C13.04 78.47 15.15 79.52 16.21 81.22 L13.04 84.61 L21.27 84.61 L21.27 75.71
								 L18.32 78.89 C16.63 76.77 13.89 75.5 10.93 75.5 C5.66 75.5 1.44 79.53 1.02 84.61 L3.97 84.61 C4.39
								 81.01 7.35 78.47 10.93 78.47 Z" class="st5"/>
				</g>
				<g id="shape11704-15" transform="translate(22.4409,-9.49277)">
					<title>path16</title>
					<rect x="0" y="96.0928" width="11.811" height="1.1866" class="st6"/>
				</g>
			</g>
		</g>
	</g>
</svg>
